src/assets/icons/boundaries.svg

<?xml version="1.0" encoding="UTF-8" standalone="no"?>
<svg width="124px" height="124px" viewBox="0 0 124 124" version="1.1" xmlns="http://www.w3.org/2000/svg" xmlns:xlink="http://www.w3.org/1999/xlink" xmlns:sketch="http://www.bohemiancoding.com/sketch/ns">
    <!-- Generator: Sketch 3.3.3 (12081) - http://www.bohemiancoding.com/sketch -->
    <title>boundaries</title>
    <desc>Created with Sketch.</desc>
    <defs></defs>
    <g id="Page-1" stroke-width="1" fill-rule="evenodd" sketch:type="MSPage">
        <g id="boundaries" sketch:type="MSLayerGroup">
            <path d="M61.997,6.314 C31.318,6.314 6.359,31.075 6.359,61.511 C6.359,91.946 31.318,116.707 61.997,116.707 C92.676,116.707 117.635,91.946 117.635,61.511 C117.635,31.075 92.676,6.314 61.997,6.314 L61.997,6.314 L61.997,6.314 Z M61.997,123.016 C27.812,123.016 0,95.425 0,61.511 C0,27.597 27.812,0.006 61.997,0.006 C96.182,0.006 123.994,27.597 123.994,61.511 C123.994,95.425 96.182,123.016 61.997,123.016 L61.997,123.016 L61.997,123.016 Z" id="Fill-1" sketch:type="MSShapeGroup"></path>
            <path d="M89.6430974,43.0750564 L95.0940103,48.5259692 L95.0921026,29.3835487 L75.9490462,29.3810051 L81.4012308,34.8325538 L61.9968205,54.2356923 L42.5936821,34.8325538 L48.0445949,29.3810051 L28.9021744,29.3835487 L28.8996308,48.5266051 L34.3505436,43.0750564 L53.7543179,62.4781949 L34.3505436,81.8819692 L28.8996308,76.4310564 L28.9021744,95.5734769 L48.0445949,95.5760205 L42.5936821,90.1244718 L61.9968205,70.7213333 L81.4012308,90.1244718 L75.9490462,95.5760205 L95.0921026,95.5734769 L95.0946462,76.4304205 L89.6430974,81.8819692 L70.2393231,62.4788308 L89.6430974,43.0750564" id="Fill-4" fill="currentColor" sketch:type="MSShapeGroup"></path>
        </g>
    </g>
</svg>

<svg width="124" height="124" xmlns="http://www.w3.org/2000/svg"><g fill-rule="evenodd"><path d="M61.997 6.314c-30.679 0-55.638 24.761-55.638 55.197 0 30.435 24.959 55.196 55.638 55.196s55.638-24.761 55.638-55.196c0-30.436-24.959-55.197-55.638-55.197zm0 116.702C27.812 123.016 0 95.425 0 61.511S27.812.006 61.997.006s61.997 27.591 61.997 61.505-27.812 61.505-61.997 61.505z"/><path d="M89.643 43.075l5.451 5.451-.002-19.142-19.143-.003 5.452 5.452-19.404 19.403-19.403-19.403 5.45-5.452-19.142.003-.002 19.143 5.45-5.452 19.404 19.403-19.403 19.404-5.451-5.45.002 19.141 19.143.003-5.451-5.452 19.403-19.403L81.4 90.124l-5.452 5.452 19.143-.003.003-19.143-5.452 5.452L70.24 62.479l19.404-19.404" fill="currentColor"/></g></svg>
